X:1
T:Sy vos pretendeys
T:Enrico Radesca di Foggia
T:Source : Secondo Libro delle canzonette, madrigali et arie alla Romana a due voci--- Milano---Herede di S.Tini et F.Lomazzo---1606. Editor : André Vierendeels (29/12/16).
T:Notes : Original clefs : C1, F4, F4 Editorial accidentals above the staff "Per cantar e sonar con il chitarone o spinetta"
T:Sy vos pretendeys
T:©
T:©
T:©
C:Enrico Radesca di Foggia
Z:©
%%score 1 { 2 | 3 }
L:1/8
Q:1/4=103
M:6/4
K:F
V:1 treble nm="Soprano" snm="S"
V:2 treble nm="MusicXML Part"
V:3 bass 
V:1
 z4 G2 G3 A G2 | A4 A2 B4 B2 | z4 F2 G3 A G2 | F4 _E2 D6 :: z4 BB A3 G A2 | G3 A G2 ^F6 | %6
w: Sy vos pre- ten-|deys que- rer- me,|que- re- ros e|siem- pre yo,|Y sy no no no|no no no no,|
w: ||||||
w: ||||||
w: ||||||
w: ||||||
w: ||||||
w: ||||||
w: ||||||
w: ||||||
"^-natural" z4 DD E3 F G2 | ^F3 G A2 G6 ::"^1)""^2)" z2 G2 G2 G4 G2 | A4 A2 B4 B2 | %10
w: Y sy no no no|no no no no.|Que- rer bien y|ser que- ri- do,|
w: ||Muy fa- bo- re-|ci- do fu- i|
w: ||Que- re- ros e|sy me ga- ys,|
w: ||Co- mo'a- mar sin|ser a- ma- do,|
w: ||Sy'el a- mor que'os|è te- ni- do,|
w: ||Pa- de- zer sin|e- spe- rar, _|
w: ||Puis con el bien|que s'e- spe- ra,|
w: ||Sy en A- mor|pen- says pa- gar,|
w: ||La pri- mie- ra|vez que os- vi|
 z2 F2 F2 G4 G2 |"^Y sy no ---""^Y sy no--" F4 _E2 D4 D2 :: z4 BB A3 G A2 | G3 A G2 ^F6 | %14
w: es un bien muy|ce- le- bra- do,|Y sy no no no|no no no no,|
w: de a que- sto|que me ne- gays|||
w: lo que al- li-|se me mos- tro.|||
w: ques un muy tri-|ste par- ti- do,|||
w: ma mo- strais con-|ten- to'e sto- y.|||
w: nin- gun' A- man-|te lo quie- ra,|||
w: in do- lor se|hà da pas- sar|||
w: que- re- ros e|siem- pre y- o|||
w: Se- no- ra su|os a- cor- das|||
 z4 DD E3 F G2 | ^F3 G A2 G6 :| %16
w: Y sy no no no|no no no no.|
w: ||
w: ||
w: ||
w: ||
w: ||
w: ||
w: ||
w: ||
V:2
 z12 | z12 | z12 | z12 :: z12 | z12 | z12 | z12 :: %8
"^Que-re-ros e sy me gays, lo que al-li-se me mo-stro. Y sy no----""^3)" z12 | z12 | z12 | %11
"^Y sy no..." z12 :: z12 | z12 | z12 | z12 :| %16
V:3
"^BC""^Basso" z4 G,2 G,3 ^F, G,2 | F,4 F,2 B,,4 B,,2 | z4 B,,2 _E,3 E, E,2 | F,4 F,2 B,,6 :: %4
w: Sy vos pre- ten-|deys que- rer- me,|que- re- ros e|siem- pre yo,|
"^B" z4 B,,B,, F,6 | G,6 D,6 | z4 B,,B,, C,6 | D,6 G,,6 ::"^BC" z2 G,2 G,2 G,4 G,2 | %9
w: Y sy no|no no,|Y sy no|no no.||
 F,4 F,2 B,,4 B,,2 | z2 B,,2 B,,2 _E,4 E,2 |"^-natural" F,4 F,2 B,,4 B,,2 ::"^B" z4 B,,B,, F,6 | %13
w: |||Y sy no|
 G,6 D,6 | z4 B,,B,, C,6 | D,6 G,,6 :| %16
w: no no,|Y sy no|no no.|

